X:978
T:Polska
T:efter Pelle Fors
Z:Björn Ek 2009-01-10
O:Vikbolandet, Östergötland
S:efter Pelle Fors
B:Låtar efter Pelle Fors
R:Polska
M:3/4
L:1/16
K:G
%
|:d4 c4 ((5:4BcBAB)|G2AB (cd)ef g4|d4 c4 ((5:4BcBAB)|G2AB (cB)AF G2D2|
d4 c4 ((5:4BcBAB)|G2AB (cd)ef g2(g2|d2)(d2 c2)(c2 B2)(B2|G2)AB (cB)AF F2G2:|
%
|:D2f2 d2f2 (fg)af|d2g2 D2g2 (ga)bg|d2f2 D2f2 (fg)af|d2ef (ga)ge (ed)dB|(dc)AF A2G2 G4:|
%
(:musicend:)

(:music:)
